src/images/homePage/logo.svg

<svg xmlns="http://www.w3.org/2000/svg" fill="none" viewBox="0 0 95 20">
  <path fill="#121417" d="M9.35156 13.0566V15H2.21289v-1.9434h7.13867ZM2.89648.78125V15H.445312V.78125H2.89648ZM15.2699 15.1953c-.7812 0-1.4876-.1269-2.1191-.3808-.625-.2605-1.1589-.6218-1.6016-1.084-.4362-.4623-.7715-1.0059-1.0058-1.6309-.2344-.625-.3516-1.2988-.3516-2.0215v-.3906c0-.82682.1204-1.57552.3613-2.24609.2409-.67058.5762-1.24349 1.0059-1.71875.4297-.48177.9375-.84961 1.5234-1.10352.586-.25391 1.2207-.38086 1.9043-.38086.7552 0 1.416.12695 1.9824.38086.5664.25391 1.0352.61198 1.4063 1.07422.3776.45573.6575.99935.8398 1.63086.1888.63151.2832 1.32812.2832 2.08984v1.00584h-8.164V8.73047h5.8398v-.18555c-.013-.42318-.0976-.82031-.2539-1.1914-.1497-.3711-.3808-.67058-.6933-.89844-.3125-.22787-.7292-.3418-1.25-.3418-.3907 0-.739.08464-1.045.25391-.2994.16276-.5501.40039-.7519.71289-.2018.3125-.3581.6901-.4688 1.13281-.1041.4362-.1562.92773-.1562 1.47461v.3906c0 .4623.0618.892.1855 1.2891.1302.3906.319.7324.5664 1.0254.2474.2929.5469.5241.8985.6933.3515.1628.7519.2442 1.2011.2442.5664 0 1.071-.114 1.5137-.3418.4427-.2279.8268-.5501 1.1524-.9668l1.2402 1.2012c-.2279.332-.5241.651-.8887.957-.3646.2995-.8105.5436-1.3379.7324-.5208.1888-1.1263.2832-1.8164.2832Zm11.6215-2.3144V7.8418c0-.37761-.0684-.70313-.2051-.97657-.1367-.27343-.345-.48502-.625-.63476-.2734-.14974-.6185-.22461-1.0351-.22461-.3841 0-.7162.0651-.9961.19531-.28.13021-.4981.30599-.6543.52735-.1563.22135-.2344.472-.2344.75195h-2.3437c0-.41667.1009-.82031.3027-1.21094.2018-.39062.4948-.73893.8789-1.04492.3841-.30599.8431-.54688 1.377-.72266.5338-.17578 1.1328-.26367 1.7968-.26367.7943 0 1.4974.13346 2.1094.40039.6185.26693 1.1035.67057 1.4551 1.21094.3581.53385.5371 1.20443.5371 2.01172v4.69727c0 .4818.0325.9147.0976 1.2988.0717.3776.1726.7064.3028.9864V15H27.243c-.1107-.2539-.1986-.5762-.2637-.9668-.0586-.3971-.0879-.7812-.0879-1.1523Zm.3418-4.30668.0195 1.45508h-1.6894c-.4362 0-.8203.0423-1.1524.1269-.332.0782-.6087.1954-.83.3516-.2214.1563-.3874.3451-.4981.5664-.1107.2214-.166.472-.166.752 0 .2799.0651.5371.1953.7715.1302.2278.319.4069.5664.5371.2539.1302.5599.1953.918.1953.4818 0 .9017-.0977 1.2598-.293.3645-.2018.651-.446.8593-.7324.2084-.293.319-.5697.3321-.8301l.7617 1.0449c-.0781.267-.2116.5534-.4004.8594-.1888.306-.4362.599-.7422.8789-.2995.2734-.6608.4981-1.084.6738-.4167.1758-.8984.2637-1.4453.2637-.6901 0-1.3053-.1367-1.8457-.4101-.5404-.28-.9635-.6543-1.2695-1.1231-.306-.4753-.459-1.0124-.459-1.6113 0-.5599.1041-1.0547.3125-1.4844.2148-.4362.5273-.80078.9375-1.09374.4166-.29297.9245-.51433 1.5234-.66407.599-.15625 1.2826-.23437 2.0508-.23437h1.8457Zm6.4457-2.12891V15h-2.3535V4.43359h2.2461l.1074 2.01172Zm3.2324-2.08008-.0195 2.1875c-.1432-.02604-.2995-.04557-.4688-.05859-.1627-.01302-.3255-.01953-.4882-.01953-.4037 0-.7585.05859-1.0645.17578-.306.11068-.5631.27344-.7715.48828-.2018.20834-.358.46224-.4687.76172-.1107.29948-.1758.63477-.1953 1.00586l-.5371.03906c0-.66406.0651-1.27929.1953-1.8457.1302-.56641.3255-1.06445.5859-1.49414.2669-.42969.599-.76498.9961-1.00586.4036-.24089.8691-.36133 1.3965-.36133.1432 0 .2962.01302.459.03906.1692.02605.2962.05534.3808.08789Zm3.4086 2.32422V15h-2.3535V4.43359h2.2168l.1367 2.25586ZM39.9 9.32617l-.7617-.00976c.0065-.7487.1107-1.43555.3125-2.06055.2083-.625.4948-1.16211.8594-1.61133.3711-.44922.8138-.79427 1.3281-1.03515.5143-.2474 1.0872-.3711 1.7187-.3711.5078 0 .9668.07162 1.377.21484.4167.13672.7715.36133 1.0644.67383.2995.3125.5274.7194.6836 1.22071.1563.49479.2344 1.10351.2344 1.82617V15h-2.3633V8.16406c0-.50781-.0748-.9082-.2246-1.20117-.1432-.29948-.3548-.51107-.6347-.63477-.2735-.1302-.6153-.19531-1.0254-.19531-.4037 0-.765.08464-1.084.25391-.319.16927-.5892.40039-.8106.69336-.2148.29297-.3808.63151-.498 1.01562-.1172.38412-.1758.79427-.1758 1.23047Zm17.9594 3.73043V15h-7.1387v-1.9434h7.1387ZM51.4043.78125V15h-2.4512V.78125h2.4512Zm10.2348 3.65234V15h-2.3633V4.43359h2.3633Zm-2.5196-2.77343c0-.35808.1172-.6543.3516-.888676.2409-.240885.5729-.361328.9961-.361328.4167 0 .7454.120443.9863.361328.2409.234376.3613.530596.3613.888676 0 .35156-.1204.64453-.3613.8789-.2409.23438-.5696.35156-.9863.35156-.4232 0-.7552-.11718-.9961-.35156-.2344-.23437-.3516-.52734-.3516-.8789Zm7.0317 5.02929V15h-2.3535V4.43359h2.2168l.1367 2.25586Zm-.4199 2.63672-.7618-.00976c.0065-.7487.1107-1.43555.3125-2.06055.2084-.625.4948-1.16211.8594-1.61133.3711-.44922.8138-.79427 1.3281-1.03515.5144-.2474 1.0873-.3711 1.7188-.3711.5078 0 .9668.07162 1.3769.21484.4167.13672.7715.36133 1.0645.67383.2995.3125.5273.7194.6836 1.22071.1562.49479.2344 1.10351.2344 1.82617V15h-2.3633V8.16406c0-.50781-.0749-.9082-.2246-1.20117-.1433-.29948-.3549-.51107-.6348-.63477-.2734-.1302-.6152-.19531-1.0254-.19531-.4036 0-.765.08464-1.084.25391-.319.16927-.5892.40039-.8105.69336-.2149.29297-.3809.63151-.4981 1.01562-.1172.38412-.1757.79427-.1757 1.23047Zm15.5863-4.89258h2.1387V14.707c0 .9506-.2019 1.7578-.6055 2.4219-.4037.6641-.9668 1.1686-1.6895 1.5137-.7226.3515-1.5592.5273-2.5097.5273-.4037 0-.8529-.0586-1.3477-.1758-.4883-.1171-.9635-.3059-1.4258-.5664-.4557-.2539-.8366-.5892-1.1426-1.0058l1.1036-1.3867c.3776.4492.7942.778 1.25.9863.4557.2083.9342.3125 1.4355.3125.5404 0 .9994-.1009 1.377-.3028.3841-.1953.6803-.485.8886-.8691.2084-.3841.3125-.8529.3125-1.4062V6.82617l.2149-2.39258Zm-7.1778 5.40039v-.20507c0-.80079.0977-1.52995.293-2.1875.1953-.66407.4753-1.23373.8399-1.70899.3645-.48177.8073-.84961 1.3281-1.10351.5208-.26042 1.11-.39063 1.7676-.39063.6836 0 1.2662.1237 1.748.3711.4883.24739.8952.60221 1.2207 1.06445.3255.45573.5794 1.0026.7617 1.64062.1888.63151.3288 1.33464.42 2.10938v.65427c-.0847.7552-.2279 1.4453-.4297 2.0703-.2019.625-.4688 1.1654-.8008 1.6211-.332.4558-.7422.8073-1.2305 1.0547-.4818.2474-1.0514.3711-1.709.3711-.6445 0-1.2272-.1335-1.748-.4004-.5143-.2669-.957-.6413-1.3281-1.123-.3646-.4818-.6446-1.0482-.8399-1.6992-.1953-.6576-.293-1.3705-.293-2.13872Zm2.3536-.20507v.20507c0 .48182.0455.93102.1367 1.34762.0976.4167.2441.7845.4394 1.1036.2019.3125.4558.5599.7618.7421.3125.1758.6803.2637 1.1035.2637.5534 0 1.0058-.1172 1.3574-.3515.3581-.2344.6315-.5502.8203-.9473.1953-.4037.332-.8529.4102-1.3477V8.87695c-.0391-.38411-.1205-.74218-.2442-1.07422-.1172-.33203-.2767-.62174-.4785-.86914-.2018-.2539-.4557-.44921-.7617-.58593-.306-.14323-.6673-.21485-1.084-.21485-.4232 0-.791.09115-1.1035.27344-.3125.18229-.5697.43294-.7715.75195-.1953.31901-.3418.69011-.4395 1.11328-.0976.42318-.1464.87566-.1464 1.35743Zm8.555.20507v-.2246c0-.76172.1107-1.4681.3321-2.11915.2213-.65755.5403-1.22721.957-1.70898.4232-.48828.9375-.86589 1.543-1.13281.6119-.27344 1.3021-.41016 2.0703-.41016.7747 0 1.4648.13672 2.0703.41016.612.26692 1.1296.64453 1.5527 1.13281.4232.48177.7455 1.05143.9668 1.70898.2214.65105.3321 1.35743.3321 2.11915v.2246c0 .76172-.1107 1.46812-.3321 2.11912-.2213.6511-.5436 1.2207-.9668 1.709-.4231.4818-.9375.8594-1.5429 1.1328-.6055.2669-1.2924.4004-2.0606.4004-.7747 0-1.4681-.1335-2.0801-.4004-.6054-.2734-1.1198-.651-1.5429-1.1328-.4232-.4883-.7455-1.0579-.9668-1.709-.2214-.651-.3321-1.3574-.3321-2.11912Zm2.3536-.2246v.2246c0 .47522.0488.92452.1464 1.34762.0977.4232.2507.7943.459 1.1133.2084.319.4753.5697.8008.752.3255.1823.7129.2734 1.1621.2734.4362 0 .8138-.0911 1.1328-.2734.3255-.1823.5925-.433.8008-.752.2083-.319.3613-.6901.459-1.1133.1042-.4231.1562-.8724.1562-1.34762v-.2246c0-.46876-.052-.91146-.1562-1.32813-.0977-.42318-.2539-.79753-.4688-1.12305-.2083-.32552-.4752-.57942-.8007-.76172-.319-.1888-.6999-.2832-1.1426-.2832-.4427 0-.8268.0944-1.1524.2832-.319.1823-.5826.4362-.791.76172-.2083.32552-.3613.69987-.459 1.12305-.0976.41667-.1464.85937-.1464 1.32813Z"/>
</svg>

<svg id="logo" width="95" height="20" viewBox="0 0 95 20" xmlns="http://www.w3.org/2000/svg">
<path d="M9.35156 13.0566V15H2.21289V13.0566H9.35156ZM2.89648 0.78125V15H0.445312V0.78125H2.89648ZM15.2699 15.1953C14.4887 15.1953 13.7823 15.0684 13.1508 14.8145C12.5258 14.554 11.9919 14.1927 11.5492 13.7305C11.113 13.2682 10.7777 12.7246 10.5434 12.0996C10.309 11.4746 10.1918 10.8008 10.1918 10.0781V9.6875C10.1918 8.86068 10.3122 8.11198 10.5531 7.44141C10.794 6.77083 11.1293 6.19792 11.559 5.72266C11.9887 5.24089 12.4965 4.87305 13.0824 4.61914C13.6684 4.36523 14.3031 4.23828 14.9867 4.23828C15.7419 4.23828 16.4027 4.36523 16.9691 4.61914C17.5355 4.87305 18.0043 5.23112 18.3754 5.69336C18.753 6.14909 19.0329 6.69271 19.2152 7.32422C19.404 7.95573 19.4984 8.65234 19.4984 9.41406V10.4199H11.3344V8.73047H17.1742V8.54492C17.1612 8.12174 17.0766 7.72461 16.9203 7.35352C16.7706 6.98242 16.5395 6.68294 16.227 6.45508C15.9145 6.22721 15.4978 6.11328 14.977 6.11328C14.5863 6.11328 14.238 6.19792 13.932 6.36719C13.6326 6.52995 13.3819 6.76758 13.1801 7.08008C12.9783 7.39258 12.822 7.77018 12.7113 8.21289C12.6072 8.64909 12.5551 9.14062 12.5551 9.6875V10.0781C12.5551 10.5404 12.6169 10.9701 12.7406 11.3672C12.8708 11.7578 13.0596 12.0996 13.307 12.3926C13.5544 12.6855 13.8539 12.9167 14.2055 13.0859C14.557 13.2487 14.9574 13.3301 15.4066 13.3301C15.973 13.3301 16.4776 13.2161 16.9203 12.9883C17.363 12.7604 17.7471 12.4382 18.0727 12.0215L19.3129 13.2227C19.085 13.5547 18.7888 13.8737 18.4242 14.1797C18.0596 14.4792 17.6137 14.7233 17.0863 14.9121C16.5655 15.1009 15.96 15.1953 15.2699 15.1953ZM26.8914 12.8809V7.8418C26.8914 7.46419 26.823 7.13867 26.6863 6.86523C26.5496 6.5918 26.3413 6.38021 26.0613 6.23047C25.7879 6.08073 25.4428 6.00586 25.0262 6.00586C24.6421 6.00586 24.31 6.07096 24.0301 6.20117C23.7501 6.33138 23.532 6.50716 23.3758 6.72852C23.2195 6.94987 23.1414 7.20052 23.1414 7.48047H20.7977C20.7977 7.0638 20.8986 6.66016 21.1004 6.26953C21.3022 5.87891 21.5952 5.5306 21.9793 5.22461C22.3634 4.91862 22.8224 4.67773 23.3563 4.50195C23.8901 4.32617 24.4891 4.23828 25.1531 4.23828C25.9474 4.23828 26.6505 4.37174 27.2625 4.63867C27.881 4.9056 28.366 5.30924 28.7176 5.84961C29.0757 6.38346 29.2547 7.05404 29.2547 7.86133V12.5586C29.2547 13.0404 29.2872 13.4733 29.3523 13.8574C29.424 14.235 29.5249 14.5638 29.6551 14.8438V15H27.243C27.1323 14.7461 27.0444 14.4238 26.9793 14.0332C26.9207 13.6361 26.8914 13.252 26.8914 12.8809ZM27.2332 8.57422L27.2527 10.0293H25.5633C25.1271 10.0293 24.743 10.0716 24.4109 10.1562C24.0789 10.2344 23.8022 10.3516 23.5809 10.5078C23.3595 10.6641 23.1935 10.8529 23.0828 11.0742C22.9721 11.2956 22.9168 11.5462 22.9168 11.8262C22.9168 12.1061 22.9819 12.3633 23.1121 12.5977C23.2423 12.8255 23.4311 13.0046 23.6785 13.1348C23.9324 13.265 24.2384 13.3301 24.5965 13.3301C25.0783 13.3301 25.4982 13.2324 25.8563 13.0371C26.2208 12.8353 26.5073 12.5911 26.7156 12.3047C26.924 12.0117 27.0346 11.735 27.0477 11.4746L27.8094 12.5195C27.7313 12.7865 27.5978 13.0729 27.409 13.3789C27.2202 13.6849 26.9728 13.9779 26.6668 14.2578C26.3673 14.5312 26.006 14.7559 25.5828 14.9316C25.1661 15.1074 24.6844 15.1953 24.1375 15.1953C23.4474 15.1953 22.8322 15.0586 22.2918 14.7852C21.7514 14.5052 21.3283 14.1309 21.0223 13.6621C20.7163 13.1868 20.5633 12.6497 20.5633 12.0508C20.5633 11.4909 20.6674 10.9961 20.8758 10.5664C21.0906 10.1302 21.4031 9.76562 21.8133 9.47266C22.2299 9.17969 22.7378 8.95833 23.3367 8.80859C23.9357 8.65234 24.6193 8.57422 25.3875 8.57422H27.2332ZM33.6789 6.44531V15H31.3254V4.43359H33.5715L33.6789 6.44531ZM36.9113 4.36523L36.8918 6.55273C36.7486 6.52669 36.5923 6.50716 36.423 6.49414C36.2603 6.48112 36.0975 6.47461 35.9348 6.47461C35.5311 6.47461 35.1763 6.5332 34.8703 6.65039C34.5643 6.76107 34.3072 6.92383 34.0988 7.13867C33.897 7.34701 33.7408 7.60091 33.6301 7.90039C33.5194 8.19987 33.4543 8.53516 33.4348 8.90625L32.8977 8.94531C32.8977 8.28125 32.9628 7.66602 33.093 7.09961C33.2232 6.5332 33.4185 6.03516 33.6789 5.60547C33.9458 5.17578 34.2779 4.84049 34.675 4.59961C35.0786 4.35872 35.5441 4.23828 36.0715 4.23828C36.2147 4.23828 36.3677 4.2513 36.5305 4.27734C36.6997 4.30339 36.8267 4.33268 36.9113 4.36523ZM40.3199 6.68945V15H37.9664V4.43359H40.1832L40.3199 6.68945ZM39.9 9.32617L39.1383 9.31641C39.1448 8.56771 39.249 7.88086 39.4508 7.25586C39.6591 6.63086 39.9456 6.09375 40.3102 5.64453C40.6813 5.19531 41.124 4.85026 41.6383 4.60938C42.1526 4.36198 42.7255 4.23828 43.357 4.23828C43.8648 4.23828 44.3238 4.3099 44.734 4.45312C45.1507 4.58984 45.5055 4.81445 45.7984 5.12695C46.0979 5.43945 46.3258 5.84635 46.482 6.34766C46.6383 6.84245 46.7164 7.45117 46.7164 8.17383V15H44.3531V8.16406C44.3531 7.65625 44.2783 7.25586 44.1285 6.96289C43.9853 6.66341 43.7737 6.45182 43.4938 6.32812C43.2203 6.19792 42.8785 6.13281 42.4684 6.13281C42.0647 6.13281 41.7034 6.21745 41.3844 6.38672C41.0654 6.55599 40.7952 6.78711 40.5738 7.08008C40.359 7.37305 40.193 7.71159 40.0758 8.0957C39.9586 8.47982 39.9 8.88997 39.9 9.32617ZM57.8594 13.0566V15H50.7207V13.0566H57.8594ZM51.4043 0.78125V15H48.9531V0.78125H51.4043ZM61.6391 4.43359V15H59.2758V4.43359H61.6391ZM59.1195 1.66016C59.1195 1.30208 59.2367 1.00586 59.4711 0.771484C59.712 0.530599 60.044 0.410156 60.4672 0.410156C60.8839 0.410156 61.2126 0.530599 61.4535 0.771484C61.6944 1.00586 61.8148 1.30208 61.8148 1.66016C61.8148 2.01172 61.6944 2.30469 61.4535 2.53906C61.2126 2.77344 60.8839 2.89062 60.4672 2.89062C60.044 2.89062 59.712 2.77344 59.4711 2.53906C59.2367 2.30469 59.1195 2.01172 59.1195 1.66016ZM66.1512 6.68945V15H63.7977V4.43359H66.0145L66.1512 6.68945ZM65.7313 9.32617L64.9695 9.31641C64.976 8.56771 65.0802 7.88086 65.282 7.25586C65.4904 6.63086 65.7768 6.09375 66.1414 5.64453C66.5125 5.19531 66.9552 4.85026 67.4695 4.60938C67.9839 4.36198 68.5568 4.23828 69.1883 4.23828C69.6961 4.23828 70.1551 4.3099 70.5652 4.45312C70.9819 4.58984 71.3367 4.81445 71.6297 5.12695C71.9292 5.43945 72.157 5.84635 72.3133 6.34766C72.4695 6.84245 72.5477 7.45117 72.5477 8.17383V15H70.1844V8.16406C70.1844 7.65625 70.1095 7.25586 69.9598 6.96289C69.8165 6.66341 69.6049 6.45182 69.325 6.32812C69.0516 6.19792 68.7098 6.13281 68.2996 6.13281C67.896 6.13281 67.5346 6.21745 67.2156 6.38672C66.8966 6.55599 66.6264 6.78711 66.4051 7.08008C66.1902 7.37305 66.0242 7.71159 65.907 8.0957C65.7898 8.47982 65.7313 8.88997 65.7313 9.32617ZM81.3176 4.43359H83.4563V14.707C83.4563 15.6576 83.2544 16.4648 82.8508 17.1289C82.4471 17.793 81.884 18.2975 81.1613 18.6426C80.4387 18.9941 79.6021 19.1699 78.6516 19.1699C78.2479 19.1699 77.7987 19.1113 77.3039 18.9941C76.8156 18.877 76.3404 18.6882 75.8781 18.4277C75.4224 18.1738 75.0415 17.8385 74.7355 17.4219L75.8391 16.0352C76.2167 16.4844 76.6333 16.8132 77.0891 17.0215C77.5448 17.2298 78.0233 17.334 78.5246 17.334C79.065 17.334 79.524 17.2331 79.9016 17.0312C80.2857 16.8359 80.5819 16.5462 80.7902 16.1621C80.9986 15.778 81.1027 15.3092 81.1027 14.7559V6.82617L81.3176 4.43359ZM74.1398 9.83398V9.62891C74.1398 8.82812 74.2375 8.09896 74.4328 7.44141C74.6281 6.77734 74.9081 6.20768 75.2727 5.73242C75.6372 5.25065 76.08 4.88281 76.6008 4.62891C77.1216 4.36849 77.7108 4.23828 78.3684 4.23828C79.052 4.23828 79.6346 4.36198 80.1164 4.60938C80.6047 4.85677 81.0116 5.21159 81.3371 5.67383C81.6626 6.12956 81.9165 6.67643 82.0988 7.31445C82.2876 7.94596 82.4276 8.64909 82.5188 9.42383V10.0781C82.4341 10.8333 82.2909 11.5234 82.0891 12.1484C81.8872 12.7734 81.6203 13.3138 81.2883 13.7695C80.9563 14.2253 80.5461 14.5768 80.0578 14.8242C79.576 15.0716 79.0064 15.1953 78.3488 15.1953C77.7043 15.1953 77.1216 15.0618 76.6008 14.7949C76.0865 14.528 75.6438 14.1536 75.2727 13.6719C74.9081 13.1901 74.6281 12.6237 74.4328 11.9727C74.2375 11.3151 74.1398 10.6022 74.1398 9.83398ZM76.4934 9.62891V9.83398C76.4934 10.3158 76.5389 10.765 76.6301 11.1816C76.7277 11.5983 76.8742 11.9661 77.0695 12.2852C77.2714 12.5977 77.5253 12.8451 77.8313 13.0273C78.1438 13.2031 78.5116 13.291 78.9348 13.291C79.4882 13.291 79.9406 13.1738 80.2922 12.9395C80.6503 12.7051 80.9237 12.3893 81.1125 11.9922C81.3078 11.5885 81.4445 11.1393 81.5227 10.6445V8.87695C81.4836 8.49284 81.4022 8.13477 81.2785 7.80273C81.1613 7.4707 81.0018 7.18099 80.8 6.93359C80.5982 6.67969 80.3443 6.48438 80.0383 6.34766C79.7323 6.20443 79.371 6.13281 78.9543 6.13281C78.5311 6.13281 78.1633 6.22396 77.8508 6.40625C77.5383 6.58854 77.2811 6.83919 77.0793 7.1582C76.884 7.47721 76.7375 7.84831 76.6398 8.27148C76.5422 8.69466 76.4934 9.14714 76.4934 9.62891ZM85.0484 9.83398V9.60938C85.0484 8.84766 85.1591 8.14128 85.3805 7.49023C85.6018 6.83268 85.9208 6.26302 86.3375 5.78125C86.7607 5.29297 87.275 4.91536 87.8805 4.64844C88.4924 4.375 89.1826 4.23828 89.9508 4.23828C90.7255 4.23828 91.4156 4.375 92.0211 4.64844C92.6331 4.91536 93.1507 5.29297 93.5738 5.78125C93.997 6.26302 94.3193 6.83268 94.5406 7.49023C94.762 8.14128 94.8727 8.84766 94.8727 9.60938V9.83398C94.8727 10.5957 94.762 11.3021 94.5406 11.9531C94.3193 12.6042 93.997 13.1738 93.5738 13.6621C93.1507 14.1439 92.6363 14.5215 92.0309 14.7949C91.4254 15.0618 90.7385 15.1953 89.9703 15.1953C89.1956 15.1953 88.5022 15.0618 87.8902 14.7949C87.2848 14.5215 86.7704 14.1439 86.3473 13.6621C85.9241 13.1738 85.6018 12.6042 85.3805 11.9531C85.1591 11.3021 85.0484 10.5957 85.0484 9.83398ZM87.402 9.60938V9.83398C87.402 10.3092 87.4508 10.7585 87.5484 11.1816C87.6461 11.6048 87.7991 11.9759 88.0074 12.2949C88.2158 12.6139 88.4827 12.8646 88.8082 13.0469C89.1337 13.2292 89.5211 13.3203 89.9703 13.3203C90.4065 13.3203 90.7841 13.2292 91.1031 13.0469C91.4286 12.8646 91.6956 12.6139 91.9039 12.2949C92.1122 11.9759 92.2652 11.6048 92.3629 11.1816C92.4671 10.7585 92.5191 10.3092 92.5191 9.83398V9.60938C92.5191 9.14062 92.4671 8.69792 92.3629 8.28125C92.2652 7.85807 92.109 7.48372 91.8941 7.1582C91.6858 6.83268 91.4189 6.57878 91.0934 6.39648C90.7744 6.20768 90.3935 6.11328 89.9508 6.11328C89.5081 6.11328 89.124 6.20768 88.7984 6.39648C88.4794 6.57878 88.2158 6.83268 88.0074 7.1582C87.7991 7.48372 87.6461 7.85807 87.5484 8.28125C87.4508 8.69792 87.402 9.14062 87.402 9.60938Z" fill="#121417"/>
</svg>
